; generated by Slic3r 1.1.7 on 2015-03-07 at 11:57:37

; perimeters extrusion width = 0.40mm
; infill extrusion width = 0.42mm
; solid infill extrusion width = 0.42mm
; top infill extrusion width = 0.42mm

G21 ; set units to millimeters
M107
M104 S215 ; set temperature
G28 ; home all axes
G1 Z5 F5000 ; lift nozzle

M109 S215 ; wait for temperature to be reached
G90 ; use absolute coordinates
G92 E0
M82 ; use absolute distances for extrusion
G1 F1800.000 E-1.00000
G92 E0
G1 Z0.350 F7800.000
G1 X35.368 Y35.978 F7800.000
G1 E1.00000 F1800.000
G1 X36.652 Y34.772 E1.16290 F1080.000
G1 X37.241 Y34.255 E1.23541
G1 X39.315 Y32.780 E1.47080
G1 X41.558 Y31.576 E1.70620
G1 X43.933 Y30.664 E1.94159
G1 X46.404 Y30.056 E2.17697
G1 X48.933 Y29.762 E2.41236
G1 X51.477 Y29.788 E2.64776
G1 X53.225 Y30.009 E2.81066 F1080.000
G1 X53.999 Y30.133 E2.88317
G1 X56.458 Y30.790 E3.11856
G1 X58.095 Y31.439 E3.28146
G1 X58.814 Y31.751 E3.35398
G1 X61.032 Y33.000 E3.58937
G1 X62.457 Y34.035 E3.75228
G1 X63.075 Y34.517 E3.82478
G1 X64.913 Y36.278 E4.06018
G1 X66.036 Y37.635 E4.22308
G1 X66.515 Y38.255 E4.29560
G1 X67.459 Y39.742 E4.45850
G1 X67.857 Y40.417 E4.53101
G1 X68.607 Y42.011 E4.69391
G1 X68.917 Y42.731 E4.76643
G1 X69.679 Y45.159 E5.00182
G1 X70.009 Y46.889 E5.16472
G1 X70.131 Y47.664 E5.23722
G1 X70.265 Y50.205 E5.47263
G1 X70.079 Y52.744 E5.70801
G1 X69.577 Y55.239 E5.94340
G1 X68.766 Y57.651 E6.17879
G1 X67.659 Y59.943 E6.41418
G1 X66.274 Y62.077 E6.64957
G1 X64.632 Y64.022 E6.88496
G1 X64.359 Y64.278 E6.91952
G1 X62.759 Y65.745 E7.12034
G1 X60.685 Y67.220 E7.35574
G1 X58.442 Y68.424 E7.59113
G1 X56.067 Y69.336 E7.82653
G1 X55.705 Y69.429 E7.86108
G1 X53.596 Y69.944 E8.06191
G1 X51.067 Y70.238 E8.29730
G1 X48.523 Y70.212 E8.53270
G1 X48.196 Y70.171 E8.56318
G1 X46.001 Y69.867 E8.76808
G1 X43.542 Y69.210 E9.00347
G1 X41.186 Y68.249 E9.23887
G1 X38.968 Y67.000 E9.47426
G1 X36.925 Y65.483 E9.70964
G1 X35.087 Y63.722 E9.94504
G1 X33.485 Y61.745 E10.18043
G1 X32.143 Y59.583 E10.41581
G1 X31.083 Y57.269 E10.65121
G1 X30.321 Y54.841 E10.88660
G1 X29.869 Y52.336 E11.12198
G1 X29.735 Y49.795 E11.35738
G1 X29.921 Y47.256 E11.59276
G1 X30.423 Y44.761 E11.82815
G1 X31.234 Y42.349 E12.06355
G1 X31.984 Y40.755 E12.22645
G1 X32.341 Y40.057 E12.29896
G1 X33.285 Y38.570 E12.46186
G1 X33.726 Y37.923 E12.53437
G1 X35.330 Y36.024 E12.76422
G1 X35.803 Y36.441 F7800.000
G1 X37.087 Y35.236 E12.92713 F1080.000
G1 X37.615 Y34.769 E12.99225
G1 X39.621 Y33.337 E13.22027
G1 X41.792 Y32.167 E13.44829
G1 X44.091 Y31.279 E13.67631
G1 X46.484 Y30.686 E13.90432
G1 X48.933 Y30.398 E14.13235
G1 X51.398 Y30.419 E14.36037
G1 X53.145 Y30.639 E14.52327 F1080.000
G1 X53.841 Y30.748 E14.58840
G1 X56.224 Y31.381 E14.81642
G1 X57.861 Y32.030 E14.97932
G1 X58.508 Y32.308 E15.04446
G1 X60.658 Y33.514 E15.27248
G1 X62.083 Y34.549 E15.43538
G1 X62.640 Y34.980 E15.50051
G1 X64.423 Y36.683 E15.72854
G1 X65.546 Y38.040 E15.89144
G1 X65.979 Y38.595 E15.95657
G1 X66.922 Y40.083 E16.11947
G1 X67.282 Y40.688 E16.18460
G1 X68.032 Y42.282 E16.34751
G1 X68.313 Y42.927 E16.41265
G1 X69.055 Y45.278 E16.64067
G1 X69.385 Y47.009 E16.80357
G1 X69.496 Y47.704 E16.86869
G1 X69.630 Y50.166 E17.09672
G1 X69.455 Y52.624 E17.32473
G1 X68.973 Y55.042 E17.55275
G1 X68.191 Y57.380 E17.78077
G1 X67.123 Y59.602 E18.00878
G1 X65.784 Y61.672 E18.23680
G1 X64.197 Y63.559 E18.46482
G1 X63.924 Y63.814 E18.49938
G1 X62.385 Y65.231 E18.69283
G1 X60.379 Y66.663 E18.92086
G1 X58.208 Y67.833 E19.14888
G1 X55.909 Y68.721 E19.37690
G1 X55.547 Y68.814 E19.41145
G1 X53.516 Y69.314 E19.60491
G1 X51.067 Y69.602 E19.83293
G1 X48.602 Y69.581 E20.06095
G1 X48.275 Y69.540 E20.09144
G1 X46.159 Y69.252 E20.28897
G1 X43.776 Y68.619 E20.51698
G1 X41.492 Y67.692 E20.74500
G1 X39.342 Y66.486 E20.97303
G1 X37.360 Y65.020 E21.20104
G1 X35.577 Y63.317 E21.42906
G1 X34.021 Y61.405 E21.65708
G1 X32.718 Y59.312 E21.88509
G1 X31.687 Y57.073 E22.11311
G1 X30.945 Y54.722 E22.34113
G1 X30.504 Y52.296 E22.56914
G1 X30.370 Y49.834 E22.79717
G1 X30.545 Y47.376 E23.02518
G1 X31.027 Y44.958 E23.25320
G1 X31.809 Y42.620 E23.48122
G1 X32.559 Y41.026 E23.64412
G1 X32.877 Y40.398 E23.70925
G1 X33.821 Y38.911 E23.87215
G1 X34.216 Y38.328 E23.93729
G1 X35.765 Y36.487 E24.15976
G1 F1800.000 E23.15976
G92 E0
G1 X60.415 Y59.781 F7800.000
G1 E1.00000 F1800.000
G1 X59.107 Y61.009 E1.16595 F540.000
G1 X57.656 Y62.063 E1.33190
G1 X56.083 Y62.928 E1.49785
G1 X54.415 Y63.588 E1.66381
G1 X52.677 Y64.034 E1.82976
G1 X50.897 Y64.259 E1.99571
G1 X49.103 Y64.259 E2.16166
G1 X47.323 Y64.034 E2.32762
G1 X45.585 Y63.588 E2.49357
G1 X43.917 Y62.928 E2.65952
G1 X42.344 Y62.063 E2.82547
G1 X40.893 Y61.009 E2.99142
G1 X39.585 Y59.781 E3.15737
G1 X38.441 Y58.398 E3.32332
G1 X37.480 Y56.883 E3.48928
G1 X36.716 Y55.260 E3.65523
G1 X36.161 Y53.553 E3.82118
G1 X35.825 Y51.791 E3.98713
G1 X35.712 Y50.000 E4.15308
G1 X35.825 Y48.209 E4.31904
G1 X36.161 Y46.447 E4.48499
G1 X36.716 Y44.740 E4.65094
G1 X37.480 Y43.117 E4.81689
G1 X38.441 Y41.602 E4.98285
G1 X39.585 Y40.219 E5.14879
G1 X40.893 Y38.991 E5.31474
G1 X42.344 Y37.937 E5.48070
G1 X43.917 Y37.072 E5.64665
G1 X45.585 Y36.412 E5.81260
G1 X47.323 Y35.966 E5.97855
G1 X49.103 Y35.741 E6.14450
G1 X50.897 Y35.741 E6.31046
G1 X52.584 Y35.954 E6.46767
G1 X54.415 Y36.412 E6.64229 F540.000
G1 X56.083 Y37.072 E6.80825
G1 X57.656 Y37.937 E6.97420
G1 X59.107 Y38.991 E7.14015
G1 X60.415 Y40.219 E7.30610
G1 X61.559 Y41.602 E7.47205
G1 X62.520 Y43.117 E7.63801
G1 X63.284 Y44.740 E7.80396
G1 X63.839 Y46.447 E7.96991
G1 X64.175 Y48.209 E8.13586
G1 X64.288 Y50.000 E8.30181
G1 X64.175 Y51.791 E8.46776
G1 X63.839 Y53.553 E8.63371
G1 X63.284 Y55.260 E8.79967
G1 X62.520 Y56.883 E8.96562
G1 X61.559 Y58.398 E9.13157
G1 X60.453 Y59.734 E9.29197
G1 X59.951 Y59.345 F7800.000
G1 X58.701 Y60.518 E9.45052 F378.000
G1 X57.314 Y61.526 E9.60908
G1 X55.812 Y62.352 E9.76763
G1 X54.218 Y62.983 E9.92619
G1 X52.558 Y63.409 E10.08474
G1 X50.857 Y63.624 E10.24330
G1 X49.143 Y63.624 E10.40185
G1 X47.442 Y63.409 E10.56041
G1 X45.782 Y62.983 E10.71896
G1 X44.188 Y62.352 E10.87752
G1 X42.686 Y61.526 E11.03607
G1 X41.299 Y60.518 E11.19463
G1 X40.049 Y59.345 E11.35318
G1 X38.956 Y58.024 E11.51173
G1 X38.038 Y56.576 E11.67029
G1 X37.308 Y55.025 E11.82884
G1 X36.778 Y53.395 E11.98740
G1 X36.457 Y51.711 E12.14595
G1 X36.349 Y50.000 E12.30450
G1 X36.457 Y48.289 E12.46306
G1 X36.778 Y46.605 E12.62161
G1 X37.308 Y44.975 E12.78017
G1 X38.038 Y43.424 E12.93872
G1 X38.956 Y41.976 E13.09728
G1 X40.049 Y40.655 E13.25583
G1 X41.299 Y39.482 E13.41438
G1 X42.686 Y38.474 E13.57294
G1 X44.188 Y37.648 E13.73149
G1 X45.782 Y37.017 E13.89005
G1 X47.442 Y36.591 E14.04860
G1 X49.143 Y36.376 E14.20716
G1 X50.857 Y36.376 E14.36571 F378.000
G1 X52.558 Y36.591 E14.52427
G1 X54.218 Y37.017 E14.68282
G1 X55.812 Y37.648 E14.84137
G1 X57.314 Y38.474 E14.99993
G1 X58.701 Y39.482 E15.15849
G1 X59.951 Y40.655 E15.31704
G1 X61.044 Y41.976 E15.47559
G1 X61.962 Y43.424 E15.63415
G1 X62.692 Y44.975 E15.79270
G1 X63.222 Y46.605 E15.95126
G1 X63.543 Y48.289 E16.10981
G1 X63.651 Y50.000 E16.26836
G1 X63.543 Y51.711 E16.42692
G1 X63.222 Y53.395 E16.58547
G1 X62.692 Y55.025 E16.74403
G1 X61.962 Y56.576 E16.90258
G1 X61.044 Y58.024 E17.06113
G1 X59.989 Y59.298 E17.21414
G1 F1800.000 E16.21414
G92 E0
G1 X49.076 Y35.982 F7800.000
G1 X61.564 Y61.063 F7800.000
G1 E1.00000 F1800.000
G1 X60.207 Y62.338 E1.17227 F540.000
G1 X58.580 Y63.520 E1.35825
G1 X56.818 Y64.489 E1.54424
G1 X54.948 Y65.229 E1.73023
G1 X53.000 Y65.729 E1.91621
G1 X51.005 Y65.981 E2.10220
G1 X48.995 Y65.981 E2.28818
G1 X47.000 Y65.729 E2.47417
G1 X45.052 Y65.229 E2.66016
G1 X43.182 Y64.489 E2.84614
G1 X41.420 Y63.520 E3.03213
G1 X39.793 Y62.338 E3.21812
G1 X38.327 Y60.961 E3.40411
G1 X37.046 Y59.412 E3.59009
G1 X35.968 Y57.714 E3.77608
G1 X35.112 Y55.895 E3.96206
G1 X34.491 Y53.982 E4.14805
G1 X34.114 Y52.007 E4.33403
G1 X33.988 Y50.000 E4.52002
G1 X34.114 Y47.993 E4.70601
G1 X34.491 Y46.018 E4.89199
G1 X35.112 Y44.105 E5.07798
G1 X35.968 Y42.286 E5.26396
G1 X37.046 Y40.588 E5.44995
G1 X38.327 Y39.039 E5.63593
G1 X39.793 Y37.662 E5.82192
G1 X41.420 Y36.480 E6.00791
G1 X43.182 Y35.511 E6.19390
G1 X45.052 Y34.771 E6.37988
G1 X47.000 Y34.271 E6.56587
G1 X48.995 Y34.019 E6.75186
G1 X51.005 Y34.019 E6.93784 F540.000
G1 X53.000 Y34.271 E7.12383
G1 X54.948 Y34.771 E7.30981
G1 X56.818 Y35.511 E7.49580
G1 X58.580 Y36.480 E7.68179
G1 X60.207 Y37.662 E7.86777
G1 X61.673 Y39.039 E8.05376
G1 X62.954 Y40.588 E8.23975
G1 X64.032 Y42.286 E8.42573
G1 X64.888 Y44.105 E8.61172
G1 X65.509 Y46.018 E8.79770
G1 X65.886 Y47.993 E8.98369
G1 X66.012 Y50.000 E9.16968
G1 X65.886 Y52.007 E9.35566
G1 X65.509 Y53.982 E9.54165
G1 X64.888 Y55.895 E9.72763
G1 X64.032 Y57.714 E9.91362
G1 X62.954 Y59.412 E10.09961
G1 X61.608 Y61.022 E10.29370
G1 X62.000 Y61.526 F7800.000
G1 X60.613 Y62.828 E10.46966 F378.000
G1 X58.921 Y64.058 E10.66305
G1 X57.089 Y65.065 E10.85643
G1 X55.145 Y65.834 E11.04982
G1 X53.120 Y66.354 E11.24320
G1 X51.045 Y66.616 E11.43658
G1 X48.955 Y66.616 E11.62997
G1 X46.880 Y66.354 E11.82335
G1 X44.855 Y65.834 E12.01673
G1 X42.911 Y65.065 E12.21012
G1 X41.079 Y64.058 E12.40350
G1 X39.387 Y62.828 E12.59689
G1 X37.863 Y61.397 E12.79027
G1 X36.530 Y59.786 E12.98366
G1 X35.410 Y58.021 E13.17704
G1 X34.520 Y56.129 E13.37042
G1 X33.874 Y54.141 E13.56380
G1 X33.482 Y52.087 E13.75719
G1 X33.351 Y50.000 E13.95057
G1 X33.482 Y47.913 E14.14396
G1 X33.874 Y45.859 E14.33734
G1 X34.520 Y43.871 E14.53072
G1 X35.410 Y41.979 E14.72411
G1 X36.530 Y40.214 E14.91749
G1 X37.863 Y38.603 E15.11087
G1 X39.387 Y37.172 E15.30425
G1 X41.079 Y35.942 E15.49764
G1 X42.911 Y34.935 E15.69102
G1 X44.855 Y34.166 E15.88441
G1 X46.880 Y33.646 E16.07779
G1 X48.955 Y33.383 E16.27118
G1 X51.045 Y33.383 E16.46456
G1 X52.771 Y33.602 E16.62542
G1 X53.120 Y33.646 E16.65794 F378.000
G1 X55.145 Y34.166 E16.85133
G1 X57.089 Y34.935 E17.04471
G1 X58.921 Y35.942 E17.23809
G1 X60.613 Y37.172 E17.43148
G1 X62.137 Y38.603 E17.62486
G1 X63.470 Y40.214 E17.81825
G1 X64.590 Y41.979 E18.01163
G1 X65.480 Y43.871 E18.20501
G1 X66.126 Y45.859 E18.39839
G1 X66.518 Y47.913 E18.59178
G1 X66.649 Y50.000 E18.78516
G1 X66.518 Y52.087 E18.97855
G1 X66.126 Y54.141 E19.17193
G1 X65.480 Y56.129 E19.36531
G1 X64.590 Y58.021 E19.55870
G1 X63.470 Y59.786 E19.75208
G1 X62.137 Y61.397 E19.94546
G1 X62.043 Y61.485 E19.95733
G1 F1800.000 E18.95733
G92 E0
G1 X53.080 Y33.770 F7800.000
G1 X60.975 Y60.435 F7800.000
G1 E1.00000 F1800.000
G1 X59.657 Y61.673 E1.25653 F360.000
G1 X58.145 Y62.771 E1.52157
G1 X56.481 Y63.692 E1.79143
G1 X54.681 Y64.408 E2.06613
G1 X52.839 Y64.881 E2.33601
G1 X50.951 Y65.120 E2.60590
G1 X49.015 Y65.116 E2.88060
G1 X47.161 Y64.881 E3.14564
G1 X45.352 Y64.417 E3.41068
G1 X43.581 Y63.721 E3.68055
G1 X41.883 Y62.791 E3.95523
G1 X40.343 Y61.673 E4.22512
G1 X38.956 Y60.371 E4.49501
G1 X37.725 Y58.876 E4.76969
G1 X36.709 Y57.268 E5.03956
G1 X35.914 Y55.577 E5.30460
G1 X35.337 Y53.800 E5.56965
G1 X34.970 Y51.899 E5.84434
G1 X34.851 Y50.000 E6.11423
G1 X34.970 Y48.101 E6.38411 F360.000
G1 X35.326 Y46.232 E6.65400
G1 X35.914 Y44.423 E6.92388
G1 X36.724 Y42.702 E7.19377
G1 X37.744 Y41.095 E7.46365
G1 X38.956 Y39.629 E7.73353
G1 X40.343 Y38.327 E8.00342
G1 X41.883 Y37.209 E8.27331
G1 X43.550 Y36.292 E8.54319
G1 X45.319 Y35.592 E8.81307
G1 X47.161 Y35.119 E9.08296
G1 X49.049 Y34.880 E9.35285
G1 X50.951 Y34.880 E9.62273
G1 X52.839 Y35.119 E9.89261
G1 X54.681 Y35.592 E10.16250
G1 X56.419 Y36.279 E10.42754
G1 X58.145 Y37.228 E10.70705
G1 X59.657 Y38.327 E10.97210
G1 X61.066 Y39.655 E11.24680
G1 X62.256 Y41.095 E11.51184
G1 X63.276 Y42.702 E11.78172
G1 X64.086 Y44.423 E12.05161
G1 X64.680 Y46.266 E12.32631
G1 X65.030 Y48.101 E12.59135
G1 X65.149 Y50.000 E12.86123
G1 X65.030 Y51.899 E13.13112
G1 X64.680 Y53.743 E13.39746
G1 X64.086 Y55.577 E13.67089
G1 X63.276 Y57.298 E13.94078
G1 X62.256 Y58.905 E14.21066
G1 X61.019 Y60.394 E14.48536
M106 S255
M104 S210 ; set temperature
G1 F1800.000 E13.48536
G92 E0
G1 Z0.650 F7800.000
G1 X60.396 Y59.818 F7800.000
G1 E1.00000 F1800.000
G1 X59.116 Y61.020 E1.08756 F1625.963
G1 X57.663 Y62.076 E1.17717
G1 X56.090 Y62.941 E1.26677
G1 X54.420 Y63.602 E1.35638
G1 X52.680 Y64.049 E1.44599
G1 X50.898 Y64.274 E1.53559
G1 X49.102 Y64.274 E1.62520
G1 X47.320 Y64.049 E1.71480
G1 X45.580 Y63.602 E1.80441
G1 X43.911 Y62.941 E1.89401
G1 X42.337 Y62.076 E1.98362
G1 X40.884 Y61.020 E2.07323
G1 X39.574 Y59.790 E2.16283
G1 X38.429 Y58.406 E2.25244
G1 X37.467 Y56.890 E2.34204
G1 X36.702 Y55.265 E2.43165
G1 X36.147 Y53.557 E2.52126
G1 X35.811 Y51.792 E2.61086
G1 X35.698 Y50.000 E2.70047
G1 X35.811 Y48.208 E2.79007
G1 X36.147 Y46.443 E2.87968
G1 X36.702 Y44.735 E2.96928
G1 X37.467 Y43.110 E3.05889
G1 X38.429 Y41.594 E3.14850
G1 X39.574 Y40.210 E3.23810
G1 X40.884 Y38.980 E3.32770
G1 X42.337 Y37.924 E3.41731
G1 X43.911 Y37.059 E3.50692
G1 X45.580 Y36.398 E3.59652
G1 X47.320 Y35.951 E3.68613
G1 X49.102 Y35.726 E3.77573
G1 X50.898 Y35.726 E3.86534
G1 X52.525 Y35.932 E3.94718
G1 X52.680 Y35.951 E3.95495 F1625.963
G1 X54.420 Y36.398 E4.04455
G1 X56.089 Y37.059 E4.13416
G1 X57.663 Y37.924 E4.22376
G1 X59.116 Y38.980 E4.31337
G1 X60.426 Y40.210 E4.40297
G1 X61.571 Y41.594 E4.49258
G1 X62.533 Y43.110 E4.58219
G1 X63.298 Y44.735 E4.67179
G1 X63.853 Y46.443 E4.76140
G1 X64.189 Y48.207 E4.85100
G1 X64.302 Y50.000 E4.94061
G1 X64.189 Y51.793 E5.03021
G1 X63.853 Y53.557 E5.11982
G1 X63.298 Y55.265 E5.20943
G1 X62.533 Y56.890 E5.29903
G1 X61.571 Y58.406 E5.38864
G1 X60.438 Y59.776 E5.47729
G1 X60.122 Y59.527 F7800.000
G1 X58.861 Y60.711 E5.56360 F1625.963
G1 X57.449 Y61.737 E5.65069
G1 X55.919 Y62.578 E5.73779
G1 X54.296 Y63.221 E5.82488
G1 X52.605 Y63.655 E5.91198
G1 X50.873 Y63.874 E5.99907
G1 X49.127 Y63.874 E6.08617
G1 X47.395 Y63.655 E6.17326
G1 X45.704 Y63.221 E6.26036
G1 X44.081 Y62.578 E6.34745
G1 X42.551 Y61.737 E6.43454
G1 X41.139 Y60.711 E6.52164
G1 X39.866 Y59.516 E6.60873
G1 X38.754 Y58.171 E6.69583
G1 X37.818 Y56.697 E6.78292
G1 X37.075 Y55.117 E6.87002
G1 X36.535 Y53.457 E6.95711
G1 X36.208 Y51.742 E7.04421
G1 X36.099 Y50.000 E7.13130
G1 X36.208 Y48.258 E7.21840
G1 X36.535 Y46.543 E7.30549
G1 X37.075 Y44.883 E7.39259
G1 X37.818 Y43.303 E7.47968
G1 X38.754 Y41.829 E7.56678
G1 X39.866 Y40.484 E7.65387
G1 X41.139 Y39.289 E7.74096
G1 X42.551 Y38.263 E7.82806
G1 X44.081 Y37.422 E7.91515
G1 X45.704 Y36.779 E8.00225
G1 X47.395 Y36.345 E8.08934
G1 X49.127 Y36.126 E8.17644
G1 X50.873 Y36.126 E8.26353 F1625.963
G1 X52.605 Y36.345 E8.35063
G1 X54.296 Y36.779 E8.43772
G1 X55.919 Y37.422 E8.52482
G1 X57.449 Y38.263 E8.61191
G1 X58.861 Y39.289 E8.69901
G1 X60.134 Y40.484 E8.78610
G1 X61.246 Y41.829 E8.87319
G1 X62.182 Y43.303 E8.96029
G1 X62.925 Y44.883 E9.04738
G1 X63.465 Y46.543 E9.13448
G1 X63.792 Y48.258 E9.22157
G1 X63.901 Y50.000 E9.30867
G1 X63.792 Y51.742 E9.39576
G1 X63.465 Y53.457 E9.48286
G1 X62.925 Y55.117 E9.56995
G1 X62.182 Y56.697 E9.65705
G1 X61.246 Y58.171 E9.74414
G1 X60.162 Y59.482 E9.82903
G1 X59.841 Y59.242 F7800.000
G1 X58.605 Y60.402 E9.91361 F1138.174
G1 X57.234 Y61.399 E9.99820
G1 X55.748 Y62.216 E10.08278
G1 X54.172 Y62.840 E10.16736
G1 X52.530 Y63.261 E10.25195
G1 X50.848 Y63.474 E10.33653
G1 X49.152 Y63.474 E10.42112
G1 X47.470 Y63.261 E10.50570
G1 X45.828 Y62.840 E10.59028
G1 X44.252 Y62.216 E10.67487
G1 X42.766 Y61.399 E10.75945
G1 X41.395 Y60.402 E10.84403
G1 X40.159 Y59.242 E10.92862
G1 X39.078 Y57.935 E11.01320
G1 X38.169 Y56.504 E11.09778
G1 X37.448 Y54.970 E11.18237
G1 X36.924 Y53.357 E11.26695
G1 X36.606 Y51.692 E11.35153
G1 X36.500 Y50.000 E11.43612
G1 X36.606 Y48.308 E11.52070
G1 X36.924 Y46.643 E11.60528
G1 X37.448 Y45.030 E11.68987
G1 X38.169 Y43.496 E11.77445
G1 X39.078 Y42.065 E11.85904
G1 X40.159 Y40.758 E11.94362
G1 X41.395 Y39.598 E12.02820
G1 X42.766 Y38.601 E12.11279
G1 X44.252 Y37.784 E12.19737
G1 X45.828 Y37.160 E12.28195
G1 X47.470 Y36.739 E12.36654
G1 X49.152 Y36.526 E12.45112
G1 X50.848 Y36.526 E12.53570
G1 X52.425 Y36.726 E12.61503
G1 X54.172 Y37.160 E12.70483 F1138.174
G1 X55.748 Y37.784 E12.78942
G1 X57.234 Y38.601 E12.87400
G1 X58.605 Y39.598 E12.95858
