; generated by Slic3r 1.1.7 on 2015-03-07 at 12:16:54

; perimeters extrusion width = 0.40mm
; infill extrusion width = 0.42mm
; solid infill extrusion width = 0.42mm
; top infill extrusion width = 0.42mm

G21 ; set units to millimeters
M107
M104 S215 ; set temperature
G28 ; home all axes
G1 Z5 F5000 ; lift nozzle

M109 S215 ; wait for temperature to be reached
G90 ; use absolute coordinates
G92 E0
M82 ; use absolute distances for extrusion
G1 F1800.000 E-1.00000
G92 E0
G1 Z0.350 F7800.000
G1 X35.368 Y35.978 F7800.000
G1 E1.00000 F1800.000
G1 X36.652 Y34.772 E1.16290 F1080.000
G1 X37.241 Y34.255 E1.23541
G1 X39.315 Y32.780 E1.47080
G1 X41.558 Y31.576 E1.70620
G1 X43.933 Y30.664 E1.94159
G1 X46.404 Y30.056 E2.17697
G1 X48.933 Y29.762 E2.41236
G1 X51.477 Y29.788 E2.64776
G1 X53.225 Y30.009 E2.81066 F1080.000
G1 X53.999 Y30.133 E2.88317
G1 X56.458 Y30.790 E3.11856
G1 X58.095 Y31.439 E3.28146
G1 X58.814 Y31.751 E3.35398
G1 X61.032 Y33.000 E3.58937
G1 X62.457 Y34.035 E3.75228
G1 X63.075 Y34.517 E3.82478
G1 X64.913 Y36.278 E4.06018
G1 X66.036 Y37.635 E4.22308
G1 X66.515 Y38.255 E4.29560
G1 X67.459 Y39.742 E4.45850
G1 X67.857 Y40.417 E4.53101
G1 X68.607 Y42.011 E4.69391
G1 X68.917 Y42.731 E4.76643
G1 X69.679 Y45.159 E5.00182
G1 X70.009 Y46.889 E5.16472
G1 X70.131 Y47.664 E5.23722
G1 X70.265 Y50.205 E5.47263
G1 X70.079 Y52.744 E5.70801
G1 X69.577 Y55.239 E5.94340
G1 X68.766 Y57.651 E6.17879
G1 X67.659 Y59.943 E6.41418
G1 X66.274 Y62.077 E6.64957
G1 X64.632 Y64.022 E6.88496
G1 X64.359 Y64.278 E6.91952
G1 X62.759 Y65.745 E7.12034
G1 X60.685 Y67.220 E7.35574
G1 X58.442 Y68.424 E7.59113
G1 X56.067 Y69.336 E7.82653
G1 X55.705 Y69.429 E7.86108
G1 X53.596 Y69.944 E8.06191
G1 X51.067 Y70.238 E8.29730
G1 X48.523 Y70.212 E8.53270
G1 X48.196 Y70.171 E8.56318
G1 X46.001 Y69.867 E8.76808
G1 X43.542 Y69.210 E9.00347
G1 X41.186 Y68.249 E9.23887
G1 X38.968 Y67.000 E9.47426
G1 X36.925 Y65.483 E9.70964
G1 X35.087 Y63.722 E9.94504
G1 X33.485 Y61.745 E10.18043
G1 X32.143 Y59.583 E10.41581
G1 X31.083 Y57.269 E10.65121
G1 X30.321 Y54.841 E10.88660
G1 X29.869 Y52.336 E11.12198
G1 X29.735 Y49.795 E11.35738
G1 X29.921 Y47.256 E11.59276
G1 X30.423 Y44.761 E11.82815
G1 X31.234 Y42.349 E12.06355
G1 X31.984 Y40.755 E12.22645
G1 X32.341 Y40.057 E12.29896
G1 X33.285 Y38.570 E12.46186
G1 X33.726 Y37.923 E12.53437
G1 X35.330 Y36.024 E12.76422
G1 X35.803 Y36.441 F7800.000
G1 X37.087 Y35.236 E12.92713 F1080.000
G1 X37.615 Y34.769 E12.99225
G1 X39.621 Y33.337 E13.22027
G1 X41.792 Y32.167 E13.44829
G1 X44.091 Y31.279 E13.67631
G1 X46.484 Y30.686 E13.90432
G1 X48.933 Y30.398 E14.13235
G1 X51.398 Y30.419 E14.36037
G1 X53.145 Y30.639 E14.52327 F1080.000
G1 X53.841 Y30.748 E14.58840
G1 X56.224 Y31.381 E14.81642
G1 X57.861 Y32.030 E14.97932
G1 X58.508 Y32.308 E15.04446
G1 X60.658 Y33.514 E15.27248
G1 X62.083 Y34.549 E15.43538
G1 X62.640 Y34.980 E15.50051
G1 X64.423 Y36.683 E15.72854
G1 X65.546 Y38.040 E15.89144
G1 X65.979 Y38.595 E15.95657
G1 X66.922 Y40.083 E16.11947
G1 X67.282 Y40.688 E16.18460
G1 X68.032 Y42.282 E16.34751
G1 X68.313 Y42.927 E16.41265
G1 X69.055 Y45.278 E16.64067
G1 X69.385 Y47.009 E16.80357
G1 X69.496 Y47.704 E16.86869
G1 X69.630 Y50.166 E17.09672
G1 X69.455 Y52.624 E17.32473
G1 X68.973 Y55.042 E17.55275
G1 X68.191 Y57.380 E17.78077
G1 X67.123 Y59.602 E18.00878
G1 X65.784 Y61.672 E18.23680
G1 X64.197 Y63.559 E18.46482
G1 X63.924 Y63.814 E18.49938
G1 X62.385 Y65.231 E18.69283
G1 X60.379 Y66.663 E18.92086
G1 X58.208 Y67.833 E19.14888
G1 X55.909 Y68.721 E19.37690
G1 X55.547 Y68.814 E19.41145
G1 X53.516 Y69.314 E19.60491
G1 X51.067 Y69.602 E19.83293
G1 X48.602 Y69.581 E20.06095
G1 X48.275 Y69.540 E20.09144
G1 X46.159 Y69.252 E20.28897
G1 X43.776 Y68.619 E20.51698
G1 X41.492 Y67.692 E20.74500
G1 X39.342 Y66.486 E20.97303
G1 X37.360 Y65.020 E21.20104
G1 X35.577 Y63.317 E21.42906
G1 X34.021 Y61.405 E21.65708
G1 X32.718 Y59.312 E21.88509
G1 X31.687 Y57.073 E22.11311
G1 X30.945 Y54.722 E22.34113
G1 X30.504 Y52.296 E22.56914
G1 X30.370 Y49.834 E22.79717
G1 X30.545 Y47.376 E23.02518
G1 X31.027 Y44.958 E23.25320
G1 X31.809 Y42.620 E23.48122
G1 X32.559 Y41.026 E23.64412
G1 X32.877 Y40.398 E23.70925
G1 X33.821 Y38.911 E23.87215
G1 X34.216 Y38.328 E23.93729
G1 X35.765 Y36.487 E24.15976
G1 F1800.000 E23.15976
G92 E0
G1 X60.661 Y60.011 F7800.000
G1 E1.00000 F1800.000
G1 X59.322 Y61.268 E1.16987 F540.000
G1 X57.836 Y62.348 E1.33973
G1 X56.227 Y63.233 E1.50960
G1 X54.519 Y63.909 E1.67946
G1 X52.740 Y64.365 E1.84932
G1 X50.918 Y64.596 E2.01919
G1 X49.082 Y64.596 E2.18905
G1 X47.260 Y64.365 E2.35892
G1 X45.481 Y63.909 E2.52878
G1 X43.773 Y63.233 E2.69864
G1 X42.164 Y62.348 E2.86851
G1 X40.678 Y61.268 E3.03837
G1 X39.339 Y60.011 E3.20824
G1 X38.169 Y58.596 E3.37810
G1 X37.184 Y57.045 E3.54797
G1 X36.403 Y55.384 E3.71783
G1 X35.835 Y53.637 E3.88770
G1 X35.491 Y51.833 E4.05756
G1 X35.376 Y50.000 E4.22743
G1 X35.491 Y48.167 E4.39729
G1 X35.835 Y46.363 E4.56716
G1 X36.403 Y44.616 E4.73702
G1 X37.184 Y42.955 E4.90689
G1 X38.169 Y41.404 E5.07675
G1 X39.339 Y39.989 E5.24661
G1 X40.678 Y38.732 E5.41648
G1 X42.164 Y37.652 E5.58634
G1 X43.773 Y36.767 E5.75621
G1 X45.481 Y36.091 E5.92608
G1 X47.260 Y35.635 E6.09594
G1 X49.082 Y35.404 E6.26580
G1 X50.918 Y35.404 E6.43567
G1 X52.356 Y35.586 E6.56967
G1 X52.740 Y35.635 E6.60553 F540.000
G1 X54.519 Y36.091 E6.77539
G1 X56.227 Y36.767 E6.94525
G1 X57.836 Y37.652 E7.11512
G1 X59.322 Y38.732 E7.28499
G1 X60.661 Y39.989 E7.45485
G1 X61.831 Y41.404 E7.62471
G1 X62.816 Y42.955 E7.79458
G1 X63.597 Y44.616 E7.96445
G1 X64.165 Y46.363 E8.13431
G1 X64.509 Y48.167 E8.30418
G1 X64.581 Y49.306 E8.40973
G1 X64.668 Y49.306 E8.41781
G1 X64.509 Y51.833 E8.65198
G1 X64.165 Y53.637 E8.82184
G1 X63.597 Y55.384 E8.99171
G1 X62.816 Y57.045 E9.16157
G1 X61.831 Y58.596 E9.33144
G1 X60.699 Y59.965 E9.49575
G1 X60.197 Y59.575 F7800.000
G1 X58.916 Y60.778 E9.65822 F540.000
G1 X57.495 Y61.810 E9.82069
G1 X55.956 Y62.656 E9.98316
G1 X54.322 Y63.303 E10.14562
G1 X52.621 Y63.740 E10.30809
G1 X50.878 Y63.960 E10.47055
G1 X49.122 Y63.960 E10.63302
G1 X47.379 Y63.740 E10.79549
G1 X45.678 Y63.303 E10.95795
G1 X44.044 Y62.656 E11.12042
G1 X42.505 Y61.810 E11.28289
G1 X41.084 Y60.778 E11.44536
G1 X39.804 Y59.575 E11.60782
G1 X38.684 Y58.222 E11.77029
G1 X37.743 Y56.739 E11.93276
G1 X36.995 Y55.149 E12.09523
G1 X36.452 Y53.479 E12.25769
G1 X36.123 Y51.753 E12.42016
G1 X36.012 Y50.000 E12.58263
G1 X36.123 Y48.247 E12.74509
G1 X36.452 Y46.521 E12.90756
G1 X36.995 Y44.851 E13.07003
G1 X37.743 Y43.261 E13.23250
G1 X38.684 Y41.778 E13.39496
G1 X39.804 Y40.425 E13.55743
G1 X41.084 Y39.222 E13.71990
G1 X42.505 Y38.190 E13.88237
G1 X44.044 Y37.344 E14.04484
G1 X45.678 Y36.697 E14.20730
G1 X47.379 Y36.260 E14.36977
G1 X49.122 Y36.040 E14.53223
G1 X50.878 Y36.040 E14.69470 F540.000
G1 X52.621 Y36.260 E14.85717
G1 X54.322 Y36.697 E15.01963
G1 X55.956 Y37.344 E15.18210
G1 X57.495 Y38.190 E15.34457
G1 X58.916 Y39.222 E15.50703
G1 X60.197 Y40.425 E15.66950
G1 X61.316 Y41.778 E15.83197
G1 X62.257 Y43.261 E15.99444
G1 X63.005 Y44.851 E16.15690
G1 X63.548 Y46.521 E16.31937
G1 X63.877 Y48.247 E16.48184
G1 X63.991 Y49.942 E16.63895
G1 X63.877 Y51.753 E16.80682
G1 X63.548 Y53.479 E16.96928
G1 X63.005 Y55.149 E17.13175
G1 X62.257 Y56.739 E17.29422
G1 X61.316 Y58.222 E17.45669
G1 X60.235 Y59.529 E17.61360
G1 X59.732 Y59.139 F7800.000
G1 X58.510 Y60.287 E17.76867 F378.000
G1 X57.154 Y61.272 E17.92374
G1 X55.684 Y62.080 E18.07881
G1 X54.126 Y62.697 E18.23388
G1 X52.502 Y63.114 E18.38895
G1 X50.838 Y63.324 E18.54402
G1 X49.162 Y63.324 E18.69909
G1 X47.498 Y63.114 E18.85416
G1 X45.874 Y62.697 E19.00923
G1 X44.316 Y62.080 E19.16430
G1 X42.846 Y61.272 E19.31937
G1 X41.490 Y60.287 E19.47444
G1 X40.268 Y59.139 E19.62951
G1 X39.199 Y57.847 E19.78458
G1 X38.301 Y56.432 E19.93965
G1 X37.587 Y54.915 E20.09472
G1 X37.069 Y53.320 E20.24979
G1 X36.755 Y51.673 E20.40486
G1 X36.649 Y50.000 E20.55993
G1 X36.755 Y48.327 E20.71500
G1 X37.069 Y46.680 E20.87007
G1 X37.587 Y45.085 E21.02514
G1 X38.301 Y43.568 E21.18021
G1 X39.199 Y42.153 E21.33528
G1 X40.268 Y40.861 E21.49035
G1 X41.490 Y39.713 E21.64542
G1 X42.846 Y38.728 E21.80049
G1 X44.316 Y37.920 E21.95556
G1 X45.874 Y37.303 E22.11063
G1 X47.498 Y36.886 E22.26569
G1 X49.162 Y36.676 E22.42076
G1 X50.838 Y36.676 E22.57583
G1 X52.196 Y36.847 E22.70244
G1 X52.502 Y36.886 E22.73090 F378.000
G1 X54.126 Y37.303 E22.88597
G1 X55.684 Y37.920 E23.04104
G1 X57.154 Y38.728 E23.19611
G1 X58.510 Y39.713 E23.35118
G1 X59.732 Y40.861 E23.50625
G1 X60.801 Y42.153 E23.66132
G1 X61.699 Y43.568 E23.81639
G1 X62.413 Y45.085 E23.97146
G1 X62.931 Y46.680 E24.12653
G1 X63.245 Y48.327 E24.28160
G1 X63.351 Y50.000 E24.43667
G1 X63.245 Y51.673 E24.59174
G1 X62.931 Y53.320 E24.74681
G1 X62.413 Y54.915 E24.90188
G1 X61.699 Y56.432 E25.05695
G1 X60.801 Y57.847 E25.21202
G1 X59.770 Y59.093 E25.36154
G1 F1800.000 E24.36154
G92 E0
G1 X52.182 Y36.540 F7800.000
G1 X61.116 Y60.612 F7800.000
G1 E1.00000 F1800.000
G1 X59.801 Y61.847 E1.16683 F540.000
G1 X58.239 Y62.982 E1.34542
G1 X56.547 Y63.912 E1.52401
G1 X54.751 Y64.623 E1.70259
G1 X52.881 Y65.103 E1.88118
G1 X50.965 Y65.345 E2.05977
G1 X49.035 Y65.345 E2.23836
G1 X47.119 Y65.103 E2.41695
G1 X45.249 Y64.623 E2.59554
G1 X43.453 Y63.912 E2.77413
G1 X41.761 Y62.982 E2.95271
G1 X40.199 Y61.847 E3.13131
G1 X38.792 Y60.525 E3.30990
G1 X37.561 Y59.038 E3.48848
G1 X36.526 Y57.407 E3.66707
G1 X35.704 Y55.660 E3.84566
G1 X35.108 Y53.824 E4.02425
G1 X34.746 Y51.927 E4.20284
G1 X34.624 Y50.000 E4.38143
G1 X34.746 Y48.073 E4.56002
G1 X35.108 Y46.176 E4.73861
G1 X35.704 Y44.340 E4.91719
G1 X36.526 Y42.593 E5.09578
G1 X37.561 Y40.962 E5.27437
G1 X38.792 Y39.475 E5.45296
G1 X40.199 Y38.153 E5.63155
G1 X41.761 Y37.018 E5.81014
G1 X43.453 Y36.088 E5.98873
G1 X45.249 Y35.377 E6.16732
G1 X47.119 Y34.897 E6.34590
G1 X49.035 Y34.655 E6.52449
G1 X50.965 Y34.655 E6.70308
G1 X52.612 Y34.863 E6.85655
G1 X52.881 Y34.897 E6.88167 F540.000
G1 X54.751 Y35.377 E7.06026
G1 X56.547 Y36.088 E7.23885
G1 X58.239 Y37.018 E7.41744
G1 X59.801 Y38.153 E7.59603
G1 X61.208 Y39.475 E7.77462
G1 X62.439 Y40.962 E7.95320
G1 X63.474 Y42.593 E8.13179
G1 X64.296 Y44.340 E8.31038
G1 X64.892 Y46.176 E8.48897
G1 X65.254 Y48.073 E8.66756
G1 X65.376 Y50.000 E8.84615
G1 X65.254 Y51.927 E9.02474
G1 X64.892 Y53.824 E9.20333
G1 X64.296 Y55.660 E9.38191
G1 X63.474 Y57.407 E9.56050
G1 X62.439 Y59.038 E9.73909
G1 X61.159 Y60.571 E9.92385
G1 X61.551 Y61.076 F7800.000
G1 X60.207 Y62.338 E10.09437 F540.000
G1 X58.580 Y63.520 E10.28036
G1 X56.818 Y64.489 E10.46634
G1 X54.948 Y65.229 E10.65233
G1 X53.000 Y65.729 E10.83832
G1 X51.005 Y65.981 E11.02430
G1 X48.995 Y65.981 E11.21029
G1 X47.000 Y65.729 E11.39627
G1 X45.052 Y65.229 E11.58226
G1 X43.182 Y64.489 E11.76825
G1 X41.420 Y63.520 E11.95423
G1 X39.793 Y62.338 E12.14022
G1 X38.327 Y60.961 E12.32621
G1 X37.046 Y59.412 E12.51219
G1 X35.968 Y57.714 E12.69818
G1 X35.112 Y55.895 E12.88417
G1 X34.491 Y53.982 E13.07015
G1 X34.114 Y52.007 E13.25614
G1 X33.988 Y50.000 E13.44212
G1 X34.114 Y47.993 E13.62811
G1 X34.491 Y46.018 E13.81410
G1 X35.112 Y44.105 E14.00008
G1 X35.968 Y42.286 E14.18607
G1 X37.046 Y40.588 E14.37205
G1 X38.327 Y39.039 E14.55804
G1 X39.793 Y37.662 E14.74403
G1 X41.420 Y36.480 E14.93001
G1 X43.182 Y35.511 E15.11600
G1 X45.052 Y34.771 E15.30199
G1 X47.000 Y34.271 E15.48797
G1 X48.995 Y34.019 E15.67396
G1 X51.005 Y34.019 E15.85994 F540.000
G1 X53.000 Y34.271 E16.04593
G1 X54.948 Y34.771 E16.23192
G1 X56.818 Y35.511 E16.41790
G1 X58.580 Y36.480 E16.60389
G1 X60.207 Y37.662 E16.78988
G1 X61.673 Y39.039 E16.97587
G1 X62.954 Y40.588 E17.16185
G1 X64.032 Y42.286 E17.34784
G1 X64.888 Y44.105 E17.53382
G1 X65.509 Y46.018 E17.71981
G1 X65.886 Y47.993 E17.90579
G1 X66.012 Y50.000 E18.09178
G1 X65.886 Y52.007 E18.27777
G1 X65.509 Y53.982 E18.46375
G1 X64.888 Y55.895 E18.64974
G1 X64.032 Y57.714 E18.83572
G1 X62.954 Y59.412 E19.02171
G1 X61.673 Y60.961 E19.20769
G1 X61.594 Y61.035 E19.21761
G1 X61.986 Y61.539 F7800.000
G1 X60.613 Y62.828 E19.39183 F378.000
G1 X58.921 Y64.058 E19.58522
G1 X57.089 Y65.065 E19.77860
G1 X55.145 Y65.834 E19.97198
G1 X53.120 Y66.354 E20.16537
G1 X51.045 Y66.616 E20.35875
G1 X48.955 Y66.616 E20.55213
G1 X46.880 Y66.354 E20.74552
G1 X44.855 Y65.834 E20.93890
G1 X42.911 Y65.065 E21.13228
G1 X41.079 Y64.058 E21.32567
G1 X39.387 Y62.828 E21.51905
G1 X37.863 Y61.397 E21.71244
G1 X36.530 Y59.786 E21.90582
G1 X35.410 Y58.021 E22.09920
G1 X34.520 Y56.129 E22.29259
G1 X33.874 Y54.141 E22.48597
G1 X33.482 Y52.087 E22.67935
G1 X33.351 Y50.000 E22.87274
G1 X33.482 Y47.913 E23.06612
G1 X33.874 Y45.859 E23.25950
G1 X34.520 Y43.871 E23.45289
G1 X35.410 Y41.979 E23.64627
G1 X36.530 Y40.214 E23.83965
G1 X37.863 Y38.603 E24.03304
G1 X39.387 Y37.172 E24.22642
G1 X41.079 Y35.942 E24.41981
G1 X42.911 Y34.935 E24.61319
G1 X44.855 Y34.166 E24.80657
G1 X46.880 Y33.646 E24.99996
G1 X48.955 Y33.383 E25.19334
G1 X51.045 Y33.383 E25.38672
G1 X52.771 Y33.602 E25.54759
G1 X53.120 Y33.646 E25.58011 F378.000
G1 X55.145 Y34.166 E25.77349
G1 X57.089 Y34.935 E25.96687
G1 X58.921 Y35.942 E26.16026
G1 X60.613 Y37.172 E26.35364
G1 X62.137 Y38.603 E26.54703
G1 X63.470 Y40.214 E26.74041
G1 X64.590 Y41.979 E26.93379
G1 X65.480 Y43.871 E27.12718
G1 X66.126 Y45.859 E27.32056
G1 X66.518 Y47.913 E27.51394
G1 X66.649 Y50.000 E27.70733
G1 X66.518 Y52.087 E27.90071
G1 X66.126 Y54.141 E28.09410
G1 X65.480 Y56.129 E28.28748
G1 X64.590 Y58.021 E28.48086
G1 X63.470 Y59.786 E28.67424
G1 X62.137 Y61.397 E28.86763
G1 X62.030 Y61.498 E28.88124
G1 F1800.000 E27.88124
G92 E0
G1 X53.080 Y33.770 F7800.000
M106 S255
M104 S210 ; set temperature
G1 Z0.650 F7800.000
G1 X60.177 Y59.613 F7800.000
G1 E1.00000 F1800.000
G1 X58.925 Y60.789 E1.08568 F1677.243
G1 X57.503 Y61.822 E1.17341
G1 X55.962 Y62.669 E1.26114
G1 X54.327 Y63.317 E1.34886
G1 X52.624 Y63.754 E1.43659
G1 X50.879 Y63.974 E1.52431
G1 X49.121 Y63.974 E1.61204
G1 X47.376 Y63.754 E1.69976
G1 X45.673 Y63.317 E1.78749
G1 X44.038 Y62.669 E1.87521
G1 X42.497 Y61.822 E1.96294
G1 X41.075 Y60.789 E2.05067
G1 X39.793 Y59.585 E2.13839
G1 X38.672 Y58.230 E2.22612
G1 X37.730 Y56.746 E2.31385
G1 X36.981 Y55.154 E2.40157
G1 X36.438 Y53.482 E2.48930
G1 X36.108 Y51.755 E2.57702
G1 X35.998 Y50.000 E2.66475
G1 X36.108 Y48.245 E2.75248
G1 X36.438 Y46.518 E2.84020
G1 X36.981 Y44.846 E2.92793
G1 X37.730 Y43.254 E3.01566
G1 X38.672 Y41.770 E3.10338
G1 X39.793 Y40.415 E3.19111
G1 X41.075 Y39.211 E3.27883
G1 X42.497 Y38.178 E3.36656
G1 X44.038 Y37.331 E3.45429
G1 X45.673 Y36.683 E3.54201
G1 X47.376 Y36.246 E3.62974
G1 X49.121 Y36.026 E3.71746
G1 X50.879 Y36.026 E3.80519
G1 X52.624 Y36.246 E3.89292
G1 X54.327 Y36.683 E3.98064 F1677.243
G1 X55.962 Y37.331 E4.06837
G1 X57.503 Y38.178 E4.15609
G1 X58.925 Y39.211 E4.24382
G1 X60.207 Y40.415 E4.33155
G1 X61.328 Y41.770 E4.41927
G1 X62.270 Y43.254 E4.50700
G1 X63.019 Y44.846 E4.59472
G1 X63.562 Y46.518 E4.68245
G1 X63.892 Y48.245 E4.77018
G1 X64.002 Y50.000 E4.85790
G1 X63.892 Y51.755 E4.94563
G1 X63.562 Y53.482 E5.03335
G1 X63.019 Y55.154 E5.12108
G1 X62.270 Y56.746 E5.20881
G1 X61.328 Y58.230 E5.29653
G1 X60.219 Y59.570 E5.38331
G1 X59.903 Y59.321 F7800.000
G1 X58.670 Y60.480 E5.46774 F1677.243
G1 X57.288 Y61.484 E5.55295
G1 X55.791 Y62.307 E5.63817
G1 X54.203 Y62.935 E5.72338
G1 X52.549 Y63.360 E5.80860
G1 X50.854 Y63.574 E5.89381
G1 X49.146 Y63.574 E5.97903
G1 X47.451 Y63.360 E6.06424
G1 X45.797 Y62.935 E6.14946
G1 X44.209 Y62.307 E6.23467
G1 X42.712 Y61.484 E6.31989
G1 X41.330 Y60.480 E6.40510
G1 X40.085 Y59.311 E6.49032
G1 X38.996 Y57.995 E6.57553
G1 X38.081 Y56.552 E6.66075
G1 X37.354 Y55.007 E6.74596
G1 X36.826 Y53.382 E6.83118
G1 X36.506 Y51.705 E6.91639
G1 X36.399 Y50.000 E7.00161
G1 X36.506 Y48.295 E7.08682
G1 X36.826 Y46.618 E7.17204
G1 X37.354 Y44.993 E7.25725
G1 X38.081 Y43.448 E7.34247
G1 X38.996 Y42.005 E7.42768
G1 X40.085 Y40.689 E7.51290
G1 X41.330 Y39.520 E7.59811
G1 X42.712 Y38.516 E7.68333
G1 X44.209 Y37.693 E7.76854
G1 X45.797 Y37.065 E7.85376
G1 X47.451 Y36.640 E7.93897
G1 X49.146 Y36.426 E8.02419
G1 X50.854 Y36.426 E8.10940 F1677.243
G1 X52.549 Y36.640 E8.19462
