; generated by Slic3r 1.1.7 on 2015-03-07 at 12:31:32

; perimeters extrusion width = 0.40mm
; infill extrusion width = 0.42mm
; solid infill extrusion width = 0.42mm
; top infill extrusion width = 0.42mm

G21 ; set units to millimeters
M107
M104 S215 ; set temperature
G28 ; home all axes
G1 Z5 F5000 ; lift nozzle

M109 S215 ; wait for temperature to be reached
G90 ; use absolute coordinates
G92 E0
M82 ; use absolute distances for extrusion
G1 F1800.000 E-1.00000
G92 E0
G1 Z0.350 F7800.000
G1 X35.368 Y35.978 F7800.000
G1 E1.00000 F1800.000
G1 X36.652 Y34.772 E1.16290 F1080.000
G1 X37.241 Y34.255 E1.23541
G1 X39.315 Y32.780 E1.47080
G1 X41.558 Y31.576 E1.70620
G1 X43.933 Y30.664 E1.94159
G1 X46.404 Y30.056 E2.17697
G1 X48.933 Y29.762 E2.41236
G1 X51.477 Y29.788 E2.64776
G1 X53.225 Y30.009 E2.81066 F1080.000
G1 X53.999 Y30.133 E2.88317
G1 X56.458 Y30.790 E3.11856
G1 X58.095 Y31.439 E3.28146
G1 X58.814 Y31.751 E3.35398
G1 X61.032 Y33.000 E3.58937
G1 X62.457 Y34.035 E3.75228
G1 X63.075 Y34.517 E3.82478
G1 X64.913 Y36.278 E4.06018
G1 X66.036 Y37.635 E4.22308
G1 X66.515 Y38.255 E4.29560
G1 X67.459 Y39.742 E4.45850
G1 X67.857 Y40.417 E4.53101
G1 X68.607 Y42.011 E4.69391
G1 X68.917 Y42.731 E4.76643
G1 X69.679 Y45.159 E5.00182
G1 X70.009 Y46.889 E5.16472
G1 X70.131 Y47.664 E5.23722
G1 X70.265 Y50.205 E5.47263
G1 X70.079 Y52.744 E5.70801
G1 X69.577 Y55.239 E5.94340
G1 X68.766 Y57.651 E6.17879
G1 X67.659 Y59.943 E6.41418
G1 X66.274 Y62.077 E6.64957
G1 X64.632 Y64.022 E6.88496
G1 X64.359 Y64.278 E6.91952
G1 X62.759 Y65.745 E7.12034
G1 X60.685 Y67.220 E7.35574
G1 X58.442 Y68.424 E7.59113
G1 X56.067 Y69.336 E7.82653
G1 X55.705 Y69.429 E7.86108
G1 X53.596 Y69.944 E8.06191
G1 X51.067 Y70.238 E8.29730
G1 X48.523 Y70.212 E8.53270
G1 X48.196 Y70.171 E8.56318
G1 X46.001 Y69.867 E8.76808
G1 X43.542 Y69.210 E9.00347
G1 X41.186 Y68.249 E9.23887
G1 X38.968 Y67.000 E9.47426
G1 X36.925 Y65.483 E9.70964
G1 X35.087 Y63.722 E9.94504
G1 X33.485 Y61.745 E10.18043
G1 X32.143 Y59.583 E10.41581
G1 X31.083 Y57.269 E10.65121
G1 X30.321 Y54.841 E10.88660
G1 X29.869 Y52.336 E11.12198
G1 X29.735 Y49.795 E11.35738
G1 X29.921 Y47.256 E11.59276
G1 X30.423 Y44.761 E11.82815
G1 X31.234 Y42.349 E12.06355
G1 X31.984 Y40.755 E12.22645
G1 X32.341 Y40.057 E12.29896
G1 X33.285 Y38.570 E12.46186
G1 X33.726 Y37.923 E12.53437
G1 X35.330 Y36.024 E12.76422
G1 X35.803 Y36.441 F7800.000
G1 X37.087 Y35.236 E12.92713 F1080.000
G1 X37.615 Y34.769 E12.99225
G1 X39.621 Y33.337 E13.22027
G1 X41.792 Y32.167 E13.44829
G1 X44.091 Y31.279 E13.67631
G1 X46.484 Y30.686 E13.90432
G1 X48.933 Y30.398 E14.13235
G1 X51.398 Y30.419 E14.36037
G1 X53.145 Y30.639 E14.52327 F1080.000
G1 X53.841 Y30.748 E14.58840
G1 X56.224 Y31.381 E14.81642
G1 X57.861 Y32.030 E14.97932
G1 X58.508 Y32.308 E15.04446
G1 X60.658 Y33.514 E15.27248
G1 X62.083 Y34.549 E15.43538
G1 X62.640 Y34.980 E15.50051
G1 X64.423 Y36.683 E15.72854
G1 X65.546 Y38.040 E15.89144
G1 X65.979 Y38.595 E15.95657
G1 X66.922 Y40.083 E16.11947
G1 X67.282 Y40.688 E16.18460
G1 X68.032 Y42.282 E16.34751
G1 X68.313 Y42.927 E16.41265
G1 X69.055 Y45.278 E16.64067
G1 X69.385 Y47.009 E16.80357
G1 X69.496 Y47.704 E16.86869
G1 X69.630 Y50.166 E17.09672
G1 X69.455 Y52.624 E17.32473
G1 X68.973 Y55.042 E17.55275
G1 X68.191 Y57.380 E17.78077
G1 X67.123 Y59.602 E18.00878
G1 X65.784 Y61.672 E18.23680
G1 X64.197 Y63.559 E18.46482
G1 X63.924 Y63.814 E18.49938
G1 X62.385 Y65.231 E18.69283
G1 X60.379 Y66.663 E18.92086
G1 X58.208 Y67.833 E19.14888
G1 X55.909 Y68.721 E19.37690
G1 X55.547 Y68.814 E19.41145
G1 X53.516 Y69.314 E19.60491
G1 X51.067 Y69.602 E19.83293
G1 X48.602 Y69.581 E20.06095
G1 X48.275 Y69.540 E20.09144
G1 X46.159 Y69.252 E20.28897
G1 X43.776 Y68.619 E20.51698
G1 X41.492 Y67.692 E20.74500
G1 X39.342 Y66.486 E20.97303
G1 X37.360 Y65.020 E21.20104
G1 X35.577 Y63.317 E21.42906
G1 X34.021 Y61.405 E21.65708
G1 X32.718 Y59.312 E21.88509
G1 X31.687 Y57.073 E22.11311
G1 X30.945 Y54.722 E22.34113
G1 X30.504 Y52.296 E22.56914
G1 X30.370 Y49.834 E22.79717
G1 X30.545 Y47.376 E23.02518
G1 X31.027 Y44.958 E23.25320
G1 X31.809 Y42.620 E23.48122
G1 X32.559 Y41.026 E23.64412
G1 X32.877 Y40.398 E23.70925
G1 X33.821 Y38.911 E23.87215
G1 X34.216 Y38.328 E23.93729
G1 X35.765 Y36.487 E24.15976
G1 F1800.000 E23.15976
G92 E0
G1 X47.736 Y36.580 F7800.000
G1 E1.00000 F1800.000
G1 X49.145 Y36.402 E1.13130 F540.000
G1 X50.856 Y36.402 E1.28955
G1 X52.553 Y36.617 E1.44780
G1 X54.210 Y37.042 E1.60605
G1 X55.801 Y37.672 E1.76430
G1 X57.300 Y38.497 E1.92255
G1 X58.685 Y39.502 E2.08079
G1 X59.932 Y40.673 E2.23904
G1 X61.022 Y41.992 E2.39729
G1 X61.939 Y43.436 E2.55555
G1 X62.668 Y44.985 E2.71379
G1 X63.196 Y46.612 E2.87204
G1 X63.517 Y48.292 E3.03029
G1 X63.624 Y50.000 E3.18854
G1 X63.517 Y51.708 E3.34679
G1 X63.196 Y53.388 E3.50504
G1 X62.668 Y55.015 E3.66329
G1 X61.939 Y56.564 E3.82154
G1 X61.022 Y58.008 E3.97979
G1 X59.932 Y59.327 E4.13804
G1 X58.685 Y60.498 E4.29629
G1 X57.300 Y61.503 E4.45454
G1 X55.801 Y62.328 E4.61278
G1 X54.210 Y62.958 E4.77104
G1 X52.553 Y63.383 E4.92929
G1 X50.856 Y63.598 E5.08753
G1 X49.144 Y63.598 E5.24578
G1 X47.447 Y63.383 E5.40403
G1 X45.790 Y62.958 E5.56228
G1 X44.199 Y62.328 E5.72053
G1 X42.700 Y61.503 E5.87878
G1 X41.315 Y60.498 E6.03703
G1 X40.068 Y59.327 E6.19528
G1 X38.978 Y58.008 E6.35353
G1 X38.061 Y56.564 E6.51178
G1 X37.332 Y55.015 E6.67003
G1 X36.804 Y53.388 E6.82827
G1 X36.483 Y51.708 E6.98653
G1 X36.376 Y50.000 E7.14477
G1 X36.483 Y48.292 E7.30302
G1 X36.804 Y46.612 E7.46128
G1 X37.332 Y44.985 E7.61952
G1 X38.061 Y43.436 E7.77777
G1 X38.978 Y41.992 E7.93602
G1 X40.068 Y40.673 E8.09427
G1 X41.315 Y39.502 E8.25252
G1 X42.700 Y38.497 E8.41077
G1 X44.199 Y37.672 E8.56902
G1 X47.736 Y36.272 E8.92088
G1 X47.736 Y36.520 E8.94388
G1 X47.816 Y37.211 F7800.000
G1 X49.184 Y37.038 E9.07148 F540.000
G1 X50.816 Y37.038 E9.22234 F540.000
G1 X52.434 Y37.243 E9.37319
G1 X54.013 Y37.648 E9.52404
G1 X55.530 Y38.249 E9.67489
G1 X56.959 Y39.034 E9.82574
G1 X58.279 Y39.993 E9.97660
G1 X59.468 Y41.109 E10.12745
G1 X60.507 Y42.366 E10.27830
G1 X61.381 Y43.743 E10.42915
G1 X62.076 Y45.219 E10.58000
G1 X62.580 Y46.770 E10.73085
G1 X62.885 Y48.372 E10.88171
G1 X62.988 Y50.000 E11.03256
G1 X62.885 Y51.628 E11.18341
G1 X62.580 Y53.230 E11.33427
G1 X62.076 Y54.781 E11.48512
G1 X61.381 Y56.257 E11.63597
G1 X60.507 Y57.634 E11.78682
G1 X59.468 Y58.891 E11.93767
G1 X58.279 Y60.007 E12.08853
G1 X56.959 Y60.966 E12.23938
G1 X55.530 Y61.751 E12.39023
G1 X54.013 Y62.352 E12.54108
G1 X52.434 Y62.757 E12.69193
G1 X50.816 Y62.962 E12.84278
G1 X49.184 Y62.962 E12.99364
G1 X47.566 Y62.757 E13.14449
G1 X45.987 Y62.352 E13.29534
G1 X44.470 Y61.751 E13.44619
G1 X43.041 Y60.966 E13.59704
G1 X41.721 Y60.007 E13.74789
G1 X40.532 Y58.891 E13.89875
G1 X39.493 Y57.634 E14.04960
G1 X38.619 Y56.257 E14.20045
G1 X37.924 Y54.781 E14.35130
G1 X37.420 Y53.230 E14.50215
G1 X37.115 Y51.628 E14.65301
G1 X37.012 Y50.000 E14.80386
G1 X37.115 Y48.372 E14.95471
G1 X37.420 Y46.770 E15.10556
G1 X37.924 Y45.219 E15.25641
G1 X38.619 Y43.743 E15.40727
G1 X39.493 Y42.366 E15.55812
G1 X40.532 Y41.109 E15.70897
G1 X41.721 Y39.993 E15.85982
G1 X43.041 Y39.034 E16.01067
G1 X44.470 Y38.249 E16.16152
G1 X47.100 Y37.207 E16.42318
G1 X47.100 Y37.362 E16.43753
G1 X47.566 Y37.243 E16.48202
G1 X47.756 Y37.219 E16.49972
G1 X47.895 Y37.842 F7800.000
G1 X49.224 Y37.674 E16.62362 F378.000
G1 X50.776 Y37.674 E16.76708
G1 X52.031 Y37.832 E16.88410
G1 X52.314 Y37.868 E16.91053 F378.000
G1 X53.817 Y38.254 E17.05398
G1 X55.259 Y38.825 E17.19744
G1 X56.618 Y39.572 E17.34089
G1 X57.873 Y40.484 E17.48435
G1 X59.003 Y41.545 E17.62780
G1 X59.992 Y42.740 E17.77126
G1 X60.823 Y44.050 E17.91471
G1 X61.483 Y45.453 E18.05817
G1 X61.963 Y46.929 E18.20162
G1 X62.253 Y48.452 E18.34508
G1 X62.351 Y50.000 E18.48853
G1 X62.253 Y51.548 E18.63198
G1 X61.963 Y53.071 E18.77544
G1 X61.483 Y54.547 E18.91889
G1 X60.823 Y55.950 E19.06235
G1 X59.992 Y57.260 E19.20580
G1 X59.003 Y58.455 E19.34926
G1 X57.873 Y59.516 E19.49271
G1 X56.618 Y60.428 E19.63617
G1 X55.259 Y61.175 E19.77962
G1 X53.817 Y61.746 E19.92308
G1 X52.314 Y62.132 E20.06653
G1 X50.776 Y62.326 E20.20998
G1 X49.224 Y62.326 E20.35344
G1 X47.686 Y62.132 E20.49689
G1 X46.183 Y61.746 E20.64035
G1 X44.741 Y61.175 E20.78380
G1 X43.382 Y60.428 E20.92726
G1 X42.127 Y59.516 E21.07071
G1 X40.997 Y58.455 E21.21417
G1 X40.008 Y57.260 E21.35762
G1 X39.177 Y55.950 E21.50108
G1 X38.517 Y54.547 E21.64453
G1 X38.037 Y53.071 E21.78798
G1 X37.747 Y51.548 E21.93144
G1 X37.649 Y50.000 E22.07489
G1 X37.747 Y48.452 E22.21835
G1 X38.037 Y46.929 E22.36180
G1 X38.517 Y45.453 E22.50526
G1 X39.177 Y44.050 E22.64871
G1 X40.008 Y42.740 E22.79217
G1 X40.997 Y41.545 E22.93562
G1 X42.127 Y40.484 E23.07908
G1 X43.382 Y39.572 E23.22253
G1 X44.741 Y38.825 E23.36598
G1 X46.465 Y38.142 E23.53744
G1 X46.465 Y38.182 E23.54106
G1 X47.686 Y37.868 E23.65764
G1 X47.836 Y37.849 E23.67165
G1 X52.193 Y37.597 F7800.000
G1 X47.517 Y34.846 F7800.000
G1 X49.035 Y34.655 E23.81312 F540.000
G1 X50.965 Y34.655 E23.99171
G1 X52.612 Y34.863 E24.14517
G1 X52.881 Y34.897 E24.17029 F540.000
G1 X54.751 Y35.377 E24.34888
G1 X56.547 Y36.088 E24.52747
G1 X58.239 Y37.018 E24.70606
G1 X59.801 Y38.153 E24.88465
G1 X61.208 Y39.475 E25.06324
G1 X62.439 Y40.962 E25.24183
G1 X63.474 Y42.593 E25.42042
G1 X64.296 Y44.340 E25.59901
G1 X64.892 Y46.176 E25.77759
G1 X65.254 Y48.073 E25.95618
G1 X65.376 Y50.000 E26.13477
G1 X65.254 Y51.927 E26.31336
G1 X64.892 Y53.824 E26.49195
G1 X64.787 Y54.147 E26.52342
G1 X64.296 Y55.660 E26.67054
G1 X63.474 Y57.407 E26.84913
G1 X62.439 Y59.038 E27.02772
G1 X61.208 Y60.525 E27.20630
G1 X59.801 Y61.847 E27.38489
G1 X58.239 Y62.982 E27.56349
G1 X56.547 Y63.912 E27.74207
G1 X54.751 Y64.623 E27.92066
G1 X52.881 Y65.103 E28.09925
G1 X50.965 Y65.345 E28.27784
G1 X49.035 Y65.345 E28.45643
G1 X47.119 Y65.103 E28.63502
G1 X45.249 Y64.623 E28.81361
G1 X43.453 Y63.912 E28.99219
G1 X41.761 Y62.982 E29.17078
G1 X40.199 Y61.847 E29.34937
G1 X38.792 Y60.525 E29.52797
G1 X37.561 Y59.038 E29.70655
G1 X36.526 Y57.407 E29.88514
G1 X35.704 Y55.660 E30.06373
G1 X35.108 Y53.824 E30.24232
G1 X34.746 Y51.927 E30.42091
G1 X34.624 Y50.000 E30.59949
G1 X34.746 Y48.073 E30.77808
G1 X35.108 Y46.176 E30.95667
G1 X35.704 Y44.340 E31.13526
G1 X36.526 Y42.593 E31.31385
G1 X37.415 Y41.192 E31.46732
G1 X37.561 Y40.962 E31.49244
G1 X38.792 Y39.475 E31.67102
G1 X40.199 Y38.153 E31.84961
G1 X41.761 Y37.018 E32.02821
G1 X43.453 Y36.088 E32.20679
G1 X45.249 Y35.377 E32.38538
G1 X47.119 Y34.897 E32.56397
G1 X47.458 Y34.854 E32.59554
G1 X47.437 Y34.216 F7800.000
G1 X48.995 Y34.019 E32.74071 F540.000
G1 X51.005 Y34.019 E32.92670 F540.000
G1 X53.000 Y34.271 E33.11268
G1 X54.948 Y34.771 E33.29867
G1 X56.818 Y35.511 E33.48466
G1 X58.381 Y36.371 E33.64963
G1 X58.580 Y36.480 E33.67064
G1 X60.207 Y37.662 E33.85663
G1 X61.673 Y39.039 E34.04262
G1 X62.954 Y40.588 E34.22860
G1 X64.032 Y42.286 E34.41459
G1 X64.888 Y44.105 E34.60057
G1 X65.509 Y46.018 E34.78656
G1 X65.886 Y47.993 E34.97255
G1 X66.012 Y50.000 E35.15853
G1 X65.886 Y52.007 E35.34452
G1 X65.509 Y53.982 E35.53051
G1 X64.888 Y55.895 E35.71649
G1 X64.032 Y57.714 E35.90248
G1 X62.954 Y59.412 E36.08846
G1 X61.673 Y60.961 E36.27445
G1 X60.207 Y62.338 E36.46043
G1 X58.580 Y63.520 E36.64642
G1 X56.818 Y64.489 E36.83241
G1 X54.948 Y65.229 E37.01839
G1 X53.000 Y65.729 E37.20438
G1 X52.691 Y65.768 E37.23320
G1 X51.005 Y65.981 E37.39037
G1 X48.995 Y65.981 E37.57635
G1 X47.000 Y65.729 E37.76234
G1 X45.052 Y65.229 E37.94833
G1 X43.182 Y64.489 E38.13431
G1 X41.420 Y63.520 E38.32030
G1 X39.793 Y62.338 E38.50629
G1 X38.327 Y60.961 E38.69227
G1 X37.046 Y59.412 E38.87826
G1 X35.968 Y57.714 E39.06424
G1 X35.112 Y55.895 E39.25023
G1 X35.016 Y55.598 E39.27905
G1 X34.491 Y53.982 E39.43621
G1 X34.114 Y52.007 E39.62220
G1 X33.988 Y50.000 E39.80819
G1 X34.114 Y47.993 E39.99417
G1 X34.491 Y46.018 E40.18016
G1 X35.112 Y44.105 E40.36615
G1 X35.968 Y42.286 E40.55213
G1 X37.046 Y40.588 E40.73812
G1 X38.327 Y39.039 E40.92410
G1 X39.793 Y37.662 E41.11009
G1 X41.420 Y36.480 E41.29608
G1 X43.182 Y35.511 E41.48206
G1 X45.052 Y34.771 E41.66805
G1 X47.000 Y34.271 E41.85404
G1 X47.378 Y34.223 E41.88930
G1 X47.358 Y33.585 F7800.000
G1 X48.955 Y33.383 E42.03817 F378.000
G1 X51.045 Y33.383 E42.23156
G1 X52.771 Y33.602 E42.39242
G1 X53.120 Y33.646 E42.42494 F378.000
G1 X55.145 Y34.166 E42.61832
G1 X57.089 Y34.935 E42.81171
G1 X58.921 Y35.942 E43.00509
G1 X60.613 Y37.172 E43.19848
G1 X62.137 Y38.603 E43.39186
G1 X63.470 Y40.214 E43.58524
G1 X64.590 Y41.979 E43.77863
G1 X65.480 Y43.871 E43.97201
G1 X66.126 Y45.859 E44.16539
G1 X66.518 Y47.913 E44.35878
G1 X66.649 Y50.000 E44.55216
G1 X66.518 Y52.087 E44.74554
G1 X66.126 Y54.141 E44.93893
G1 X65.480 Y56.129 E45.13231
G1 X64.590 Y58.021 E45.32569
G1 X63.470 Y59.786 E45.51908
G1 X62.137 Y61.397 E45.71246
G1 X60.613 Y62.828 E45.90584
G1 X58.921 Y64.058 E46.09923
G1 X57.089 Y65.065 E46.29261
G1 X55.145 Y65.834 E46.48600
G1 X53.120 Y66.354 E46.67938
G1 X51.045 Y66.616 E46.87276
G1 X48.955 Y66.616 E47.06615
G1 X46.880 Y66.354 E47.25953
G1 X44.855 Y65.834 E47.45291
G1 X42.911 Y65.065 E47.64630
G1 X41.079 Y64.058 E47.83968
G1 X39.387 Y62.828 E48.03307
G1 X37.863 Y61.397 E48.22645
G1 X36.530 Y59.786 E48.41983
G1 X35.410 Y58.021 E48.61322
G1 X34.520 Y56.129 E48.80660
G1 X33.874 Y54.141 E48.99998
G1 X33.482 Y52.087 E49.19337
G1 X33.351 Y50.000 E49.38675
G1 X33.482 Y47.913 E49.58013
G1 X33.874 Y45.859 E49.77352
G1 X34.520 Y43.871 E49.96690
G1 X35.410 Y41.979 E50.16028
G1 X36.530 Y40.214 E50.35367
G1 X37.863 Y38.603 E50.54705
G1 X39.387 Y37.172 E50.74043
G1 X41.079 Y35.942 E50.93382
G1 X42.911 Y34.935 E51.12720
G1 X44.855 Y34.166 E51.32059
G1 X46.880 Y33.646 E51.51397
G1 X47.298 Y33.593 E51.55293
G1 X52.921 Y33.919 F7800.000
G1 X47.848 Y35.493 F7800.000
G1 X48.098 Y35.452 E51.58901 F360.000
G1 X48.569 Y35.594 E51.65876
G1 X49.090 Y35.529 E51.73320
G1 X50.910 Y35.529 E51.99149
G1 X52.717 Y35.757 E52.24980
G1 X54.481 Y36.210 E52.50811
G1 X56.174 Y36.880 E52.76641
G1 X57.798 Y37.778 E53.02964
G1 X59.242 Y38.828 E53.28299
G1 X60.545 Y40.050 E53.53634
G1 X61.730 Y41.477 E53.79957
G1 X62.706 Y43.015 E54.05788
G1 X63.481 Y44.662 E54.31618
G1 X64.051 Y46.428 E54.57941
G1 X64.385 Y48.183 E54.83276
G1 X64.498 Y49.965 E55.08611
G1 X64.385 Y51.817 E55.34934
G1 X64.044 Y53.606 E55.60765
G1 X63.467 Y55.369 E55.87088
G1 X62.688 Y57.015 E56.12915
G1 X61.730 Y58.523 E56.38251
G1 X60.592 Y59.899 E56.63585
G1 X59.242 Y61.172 E56.89908
G1 X57.769 Y62.242 E57.15740
G1 X56.174 Y63.120 E57.41570
G1 X54.447 Y63.799 E57.67894
G1 X52.717 Y64.243 E57.93228
G1 X50.945 Y64.467 E58.18562
G1 X49.125 Y64.471 E58.44390
G1 X47.283 Y64.243 E58.70713
G1 X45.487 Y63.777 E58.97036
G1 X43.826 Y63.120 E59.22371
G1 X42.261 Y62.260 E59.47706
G1 X40.786 Y61.193 E59.73533
G1 X39.430 Y59.926 E59.99858
G1 X38.270 Y58.523 E60.25687
G1 X37.279 Y56.954 E60.52011
G1 X36.519 Y55.338 E60.77346
G1 X35.966 Y53.639 E61.02680
G1 X35.615 Y51.817 E61.29004
G1 X35.501 Y50.000 E61.54834
G1 X35.615 Y48.183 E61.80665 F360.000
G1 X35.949 Y46.428 E62.06000
G1 X36.519 Y44.662 E62.32323
G1 X37.312 Y42.985 E62.58646
G1 X38.270 Y41.477 E62.83981
G1 X39.408 Y40.101 E63.09315
G1 X40.786 Y38.807 E63.36132
G1 X42.231 Y37.758 E63.61467
G1 X43.796 Y36.897 E63.86800
G1 X45.519 Y36.210 E64.13125
G1 X47.261 Y35.644 E64.39110
G1 X47.789 Y35.508 E64.46845
M106 S252
M104 S210 ; set temperature
G1 F1800.000 E63.46845
G92 E0
G1 Z0.650 F7800.000
G1 X48.059 Y37.166 F7800.000
G1 E1.00000 F1800.000
G1 X49.184 Y37.024 E1.05656 F1800.000
G1 X50.816 Y37.024 E1.13802
G1 X52.436 Y37.228 E1.21948
G1 X54.018 Y37.634 E1.30094 F1800.000
G1 X55.536 Y38.235 E1.38240
G1 X56.967 Y39.022 E1.46386
G1 X58.288 Y39.982 E1.54532
G1 X59.478 Y41.100 E1.62678
G1 X60.519 Y42.358 E1.70824
G1 X61.394 Y43.736 E1.78970
G1 X62.089 Y45.214 E1.87116
G1 X62.594 Y46.767 E1.95262
G1 X62.899 Y48.370 E2.03408
G1 X63.002 Y50.000 E2.11555
G1 X62.899 Y51.630 E2.19701
G1 X62.594 Y53.233 E2.27847
G1 X62.089 Y54.786 E2.35993
G1 X61.394 Y56.264 E2.44139
G1 X60.519 Y57.642 E2.52285
G1 X59.478 Y58.900 E2.60431
